X:0
T:Dalkeith Fair
G:reel
S:Glen's Collection for the Great Highland Bagpipe part 3rd (Eighth Thousand)
N:J. & R. Glen 497 Lawnmarket price 1/6
N:see my Dalkeith site, <http://www.purr.demon.co.uk/dalkeith/Dalkeith.htm>
N:for the full setting with the gracenotes
M:C|
L:1/8
Q:1/2=96
K:AMix
B|GBdB gBdB|GBg>B  AA<AB|GBdB efge|gfg>B  GG<G:|
f|g2dB g2dB|AGAB   AA<AB|g2dB g2dB|AGAB   GGG>f|
  g2dB g2dB|AGAB   AA<Af|efge afge|dB GG<G||
f|g2fg afge|dB AA<Af|g2fg afge|dB GG<Gf|
  g2fg afge|dB AA<Aa|geaf gaeg|dB GG<G|]
